src/assets/images/details/2.svg

<svg width="32" height="32" viewBox="0 0 32 32" fill="none" xmlns="http://www.w3.org/2000/svg">
<path d="M8 6C8 6 5.60778 5.26667 4.45778 3.22667C4.17778 2.71667 3.85778 3.22667 3.85778 3.22667C3.85778 3.22667 1.84997 7 3.99997 11C4.25997 11.69 5.51 12 6.5 12C8.29 12 9.60777 10.4667 9.60777 8.68667C9.61777 7.46667 9.08 6.36 8 6Z" fill="url(#paint0_radial_909_3948)"/>
<path d="M24.0061 6C24.0061 6 26.3983 5.26667 27.5483 3.22667C27.8283 2.71667 28.1483 3.22667 28.1483 3.22667C28.1483 3.22667 30.1561 7 28.0061 11C27.7461 11.69 26.4961 12 25.5061 12C23.7161 12 22.3983 10.4667 22.3983 8.68667C22.3883 7.46667 22.9261 6.36 24.0061 6Z" fill="url(#paint1_radial_909_3948)"/>
<path d="M24.0061 6C24.0061 6 26.3983 5.26667 27.5483 3.22667C27.8283 2.71667 28.1483 3.22667 28.1483 3.22667C28.1483 3.22667 30.1561 7 28.0061 11C27.7461 11.69 26.4961 12 25.5061 12C23.7161 12 22.3983 10.4667 22.3983 8.68667C22.3883 7.46667 22.9261 6.36 24.0061 6Z" fill="url(#paint2_radial_909_3948)"/>
<defs>
<radialGradient id="paint0_radial_909_3948" cx="0" cy="0" r="1" gradientUnits="userSpaceOnUse" gradientTransform="translate(12 1.5) rotate(165.379) scale(11.8849 11.8849)">
<stop offset="0.472635" stop-color="#8649AC"/>
<stop offset="0.644517" stop-color="#AE7CC7"/>
<stop offset="0.759105" stop-color="#9353B3"/>
<stop offset="0.945555" stop-color="#733295"/>
</radialGradient>
<radialGradient id="paint1_radial_909_3948" cx="0" cy="0" r="1" gradientUnits="userSpaceOnUse" gradientTransform="translate(15 5) rotate(-8.36589) scale(17.1828 17.1828)">
<stop offset="0.472635" stop-color="#613184"/>
<stop offset="0.727168" stop-color="#9353B8"/>
<stop offset="0.945555" stop-color="#792F9F"/>
</radialGradient>
<radialGradient id="paint2_radial_909_3948" cx="0" cy="0" r="1" gradientUnits="userSpaceOnUse" gradientTransform="translate(28 4.5) rotate(103.134) scale(15.4029 5.28047)">
<stop stop-color="#B676D6"/>
<stop offset="0.305394" stop-color="#B676D6" stop-opacity="0"/>
</radialGradient>
</defs>
</svg>

<svg width="32" height="32" fill="none" xmlns="http://www.w3.org/2000/svg"><path d="M8 6s-2.392-.733-3.542-2.773c-.28-.51-.6 0-.6 0S1.85 7 4 11c.26.69 1.51 1 2.5 1 1.79 0 3.108-1.533 3.108-3.313C9.618 7.467 9.08 6.36 8 6z" fill="url(#a)"/><path d="M24.006 6s2.392-.733 3.542-2.773c.28-.51.6 0 .6 0S30.156 7 28.006 11c-.26.69-1.51 1-2.5 1-1.79 0-3.108-1.533-3.108-3.313-.01-1.22.528-2.327 1.608-2.687z" fill="url(#b)"/><path d="M24.006 6s2.392-.733 3.542-2.773c.28-.51.6 0 .6 0S30.156 7 28.006 11c-.26.69-1.51 1-2.5 1-1.79 0-3.108-1.533-3.108-3.313-.01-1.22.528-2.327 1.608-2.687z" fill="url(#c)"/><defs><radialGradient id="a" cx="0" cy="0" r="1" gradientUnits="userSpaceOnUse" gradientTransform="rotate(165.379 5.904 1.52) scale(11.8849)"><stop offset=".473" stop-color="#8649AC"/><stop offset=".645" stop-color="#AE7CC7"/><stop offset=".759" stop-color="#9353B3"/><stop offset=".946" stop-color="#733295"/></radialGradient><radialGradient id="b" cx="0" cy="0" r="1" gradientUnits="userSpaceOnUse" gradientTransform="matrix(16.99996 -2.5 2.5 16.99996 15 5)"><stop offset=".473" stop-color="#613184"/><stop offset=".727" stop-color="#9353B8"/><stop offset=".946" stop-color="#792F9F"/></radialGradient><radialGradient id="c" cx="0" cy="0" r="1" gradientUnits="userSpaceOnUse" gradientTransform="matrix(-3.49999 14.99998 -5.14234 -1.19988 28 4.5)"><stop stop-color="#B676D6"/><stop offset=".305" stop-color="#B676D6" stop-opacity="0"/></radialGradient></defs></svg>
